symbols/web/auto_graph/materialsymbolsoutlined/auto_graph_wght600gradN25_48px.svg

<svg xmlns="http://www.w3.org/2000/svg" height="48" width="48"><path d="M16.75 15.55 14.8 11.2l-4.35-2 4.35-2 1.95-4.35L18.8 7.2l4.35 2-4.35 2Zm13.45 6.2-1.75-3.7-3.7-1.75 3.7-1.75 1.75-3.7 1.7 3.7 3.75 1.75-3.75 1.75ZM7.05 25.9l-1.7-3.7-3.75-1.75 3.75-1.75 1.7-3.7 1.75 3.7 3.75 1.75L8.8 22.2ZM8.35 42 5.5 39.1 21 23.6l7.9 7.95 14.8-16.6 2.7 2.65-17.45 19.7L21 29.4Z"/></svg>

<svg xmlns="http://www.w3.org/2000/svg" height="48" width="48"><path d="M8.35 42 5.5 39.1 21 23.6 28.9 31.55 43.7 14.95 46.4 17.6 28.95 37.3 21 29.4ZM7.05 25.9 5.35 22.2 1.6 20.45 5.35 18.7 7.05 15 8.8 18.7 12.55 20.45 8.8 22.2ZM30.2 21.75 28.45 18.05 24.75 16.3 28.45 14.55 30.2 10.85 31.9 14.55 35.65 16.3 31.9 18.05ZM16.75 15.55 14.8 11.2 10.45 9.2 14.8 7.2 16.75 2.85 18.8 7.2 23.15 9.2 18.8 11.2Z"/></svg>
